X:11423
T:Giger sein, das ist fein (nach Seewer Seppi)  GCF (pk00690)
S:Hanny Christen. Bd.VI  Fribourg, Welschland, Wallis, Bern I. S.251 (pk00690) orig. G,C,F-Dur
S:Walliser (Volks-)Tänze. S.234-276
%%MIDI program 21
R:polka
O:Switzerland
M:2/4
L:1/16
K:G %%MIDI gchordon
"G"B2d2 !>!d4 | G2B2 !>!B4 | B2BB A2G2 | "D7"F2A2A4 | c2e2!>!e4 | d2f2 !>!f4 | 
d2fe d2ef | "G"g4z4:: [K:C] "C"c'2g2 gfe2 | c'2g2 gfe2 | "G7"defg b2a2 | "C"a2g2g4 | 
c'2g2 gfe2 | c'2g2 gfe2 | "G7"defg a2b2 | "C"c'6z2:: [K:F] "F"c2c2 c3B | A2A2 A3G | F2F2 d3c  | 
"C7"c4B4 | B2BB B3A | G2G2 G3F |1 E2G2 c3B | "F"B4A4 :|2 E2G2 c3e | "F"f6z2 |] 

